X: 123
T:Campbell's Frolic
K:G
M:6/8
L:1/8
R:Jig
D|"G"G>AG A2 d|B3 G2 d|"C"gfg eag|"D"f3 d2d|!
"G"gfe dcb|"D"ABG FED|"G"G>AG "D"A2 d|"G"B3 G2:||!
e/2f/2|gfg efg|"D"aga fed|"G"gfg eag|"D"f3 d2 e/2f/2|!
"G"gfe dcb|"D"ABG FED|"G"G>AG "D"A2 d|"G"B3 G2:||
% <A name="D1X124">
